X: 9419
T: Danish Contra
R: reel
M: 4/4
K: Eminor
|:G,EBe gfeB|cGEA FDGB,|G,EBg agfb|fdae ^cAFD|
B,Edg e3 a|afgf d3 b|bfda e^cgf|e^cAd AFDB,:|
|:G,DBG F3 A|AFDG ECDB,|A,EcG F3 d|dcEB AGEF|B,Fde f3 a|
af^ce dBcA|1 ^CEA^c eaeg|fdBc AFDB,:|2 ^CFA^c eaeb|c'aff cAA^D||

